web/themes/quartiers_solidaires/assets/icons/wait-lg.svg

<svg viewBox="0 0 143 143" xmlns="http://www.w3.org/2000/svg">
  <path d="M7.333 140A4.338 4.338 0 0 1 3 135.667a4.338 4.338 0 0 1 4.333-4.334h128.333a4.339 4.339 0 0 1 4.334 4.334 4.338 4.338 0 0 1-4.334 4.333H7.333zm49.314-59.19a13.077 13.077 0 0 0 3.858-9.31l-.001-23.333a1.5 1.5 0 1 0-3 0v14.967c-.27-.326-.554-.642-.857-.945L14.812 20.355a10.085 10.085 0 0 1-2.855-5.688h119.084a10.062 10.062 0 0 1-2.854 5.688L86.353 62.189c-.303.303-.587.619-.857.945V48.167a1.5 1.5 0 1 0-3 0V71.48a13.084 13.084 0 0 0 3.857 9.33l41.834 41.835a10.06 10.06 0 0 1 2.854 5.688H96.333v-10.166a1.5 1.5 0 1 0-3 0v10.166h-8.666V106.5a1.5 1.5 0 0 0-3 0v21.833H73V36.5a1.5 1.5 0 0 0-3 0v91.833h-8.667V106.5a1.5 1.5 0 0 0-3 0v21.833h-8.666v-10.166a1.5 1.5 0 1 0-3 0v10.166h-34.71a10.085 10.085 0 0 1 2.855-5.688L56.647 80.81zM7.333 3h128.333A4.338 4.338 0 0 1 140 7.333a4.339 4.339 0 0 1-4.334 4.334H7.333A4.338 4.338 0 0 1 3 7.333 4.338 4.338 0 0 1 7.333 3zm126.738 125.333a13.059 13.059 0 0 0-3.763-7.81L88.474 78.688a10.093 10.093 0 0 1-2.978-7.182 10.12 10.12 0 0 1 2.978-7.195l41.834-41.834a13.062 13.062 0 0 0 3.763-7.81h1.595c4.044 0 7.334-3.29 7.334-7.334C143 3.29 139.71 0 135.666 0H7.333C3.29 0 0 3.29 0 7.333c0 4.044 3.29 7.334 7.333 7.334h1.595a13.067 13.067 0 0 0 3.763 7.81l41.835 41.834a10.105 10.105 0 0 1 2.978 7.169 10.112 10.112 0 0 1-2.978 7.209l-41.835 41.834a13.064 13.064 0 0 0-3.763 7.81H7.333c-4.043 0-7.333 3.29-7.333 7.334C0 139.71 3.29 143 7.333 143h128.333c4.044 0 7.334-3.29 7.334-7.333 0-4.044-3.29-7.334-7.334-7.334h-1.595z" fill="currentColor"/>
</svg>

<?xml version="1.0" encoding="UTF-8"?>
<svg width="143px" height="143px" viewBox="0 0 143 143" version="1.1" xmlns="http://www.w3.org/2000/svg" xmlns:xlink="http://www.w3.org/1999/xlink">

      <path d="M7.333,140 C4.943,140 3,138.056 3,135.667 C3,133.277 4.943,131.333 7.333,131.333 L10.334,131.333 L48.165,131.333 L59.831,131.333 L71.498,131.333 L83.165,131.333 L94.831,131.333 L132.661,131.333 L135.666,131.333 C138.056,131.333 140,133.277 140,135.667 C140,138.056 138.056,140 135.666,140 L7.333,140 Z M56.647,80.81 C59.135,78.323 60.505,75.017 60.505,71.5 C60.505,71.493 60.504,48.167 60.504,48.167 C60.504,47.338 59.832,46.667 59.004,46.667 C58.176,46.667 57.504,47.338 57.504,48.167 L57.504,63.134 C57.234,62.808 56.95,62.492 56.647,62.189 L14.812,20.355 C13.252,18.794 12.273,16.812 11.957,14.667 L131.041,14.667 C130.727,16.812 129.748,18.795 128.187,20.355 L86.353,62.189 C86.05,62.492 85.766,62.808 85.496,63.134 L85.496,48.167 C85.496,47.338 84.824,46.667 83.996,46.667 C83.168,46.667 82.496,47.338 82.496,48.167 L82.496,71.48 C82.495,75.017 83.865,78.323 86.353,80.81 L128.187,122.645 C129.748,124.205 130.727,126.187 131.041,128.333 L96.333,128.333 L96.333,118.167 C96.333,117.338 95.661,116.667 94.833,116.667 C94.005,116.667 93.333,117.338 93.333,118.167 L93.333,128.333 L84.667,128.333 L84.667,106.5 C84.667,105.672 83.995,105 83.167,105 C82.339,105 81.667,105.672 81.667,106.5 L81.667,128.333 L73,128.333 L73,36.5 C73,35.672 72.328,35 71.5,35 C70.672,35 70,35.672 70,36.5 L70,128.333 L61.333,128.333 L61.333,106.5 C61.333,105.672 60.661,105 59.833,105 C59.005,105 58.333,105.672 58.333,106.5 L58.333,128.333 L49.667,128.333 L49.667,118.167 C49.667,117.338 48.995,116.667 48.167,116.667 C47.339,116.667 46.667,117.338 46.667,118.167 L46.667,128.333 L11.957,128.333 C12.273,126.188 13.252,124.206 14.812,122.645 L56.647,80.81 Z M7.333,3 L135.666,3 C138.056,3 140,4.944 140,7.333 C140,9.723 138.056,11.667 135.666,11.667 L7.333,11.667 C4.943,11.667 3,9.723 3,7.333 C3,4.944 4.943,3 7.333,3 Z M134.071,128.333 C133.738,125.384 132.437,122.651 130.308,120.523 L88.474,78.688 C86.555,76.77 85.497,74.22 85.496,71.506 C85.502,68.771 86.559,66.227 88.474,64.311 L130.308,22.477 C132.437,20.348 133.738,17.616 134.071,14.667 L135.666,14.667 C139.71,14.667 143,11.377 143,7.333 C143,3.29 139.71,0 135.666,0 L7.333,0 C3.29,0 0,3.29 0,7.333 C0,11.377 3.29,14.667 7.333,14.667 L8.928,14.667 C9.261,17.615 10.562,20.347 12.691,22.477 L54.526,64.311 C56.441,66.227 57.498,68.771 57.504,71.48 C57.503,74.22 56.445,76.77 54.526,78.689 L12.691,120.523 C10.562,122.652 9.261,125.385 8.928,128.333 L7.333,128.333 C3.29,128.333 0,131.623 0,135.667 C0,139.71 3.29,143 7.333,143 L135.666,143 C139.71,143 143,139.71 143,135.667 C143,131.623 139.71,128.333 135.666,128.333 L134.071,128.333 Z" id="wait-lg" fill="currentColor"></path>

</svg>
